X:1
T:Sechs Lieder
T:Der wandernde Musikant
T:Text: Joseph von Eichendorff
T:Felix Mendelssohn Bartholdy
T:Der wandernde Musikant
T:Nr. 6 aus Sechs Lieder, Op. 88
T:CPDL - Creative Commons Attribution Non Commercial 3.0
T:CPDL - Creative Commons Attribution Non Commercial 3.0
T:CPDL - Creative Commons Attribution Non Commercial 3.0
T:CPDL - Creative Commons Attribution Non Commercial 3.0
T:CPDL - Creative Commons Attribution Non Commercial 3.0
C:Felix Mendelssohn Bartholdy
Z:Joseph von Eichendorff
Z:CPDL - Creative Commons Attribution Non Commercial 3.0
%%score [ ( 1 2 ) 3 4 ( 5 6 ) ]
L:1/8
Q:1/4=96
M:6/8
K:Eb
V:1 treble nm="S"
V:2 treble 
V:3 treble nm="A"
V:4 treble-8 nm="T"
V:5 bass nm="B"
V:6 bass 
V:1
"^Allegro"!f! B | G2 B (eB)g | g3 e2 e | e2 B B2 =B | c3- c z!p! B | e2 B A2 B | G3 F2 B | %7
w: 1.~Durch|Feld und Bu- * chen-|hal- len bald|sin- gend und bald|still, _ recht|fröh- lich sei vor|al- len, wer´s|
w: 2.~Die|Lerch' als Mor- * gen-|bo- te sich|durch die Lüf- te|schwingt, _ ein'|fri- sche Rei- se-|no- te durch|
w: 3.~Vom|Ber- ge Vög- * lein|flie- gen und|Wol- ken so ge-|schwind, _ Ge-|dan- ken ü- ber-|flie- gen die|
 e2 B A2 B | G3 z2"^cresc." G |!f! (G=A)=B (cd)e | g3 f2 e | d2 c B2 =A | G3 z2!p! B | B2 =A d2 c | %14
w: Rei- sen wäh- len|will, recht|fröh- * lich sei _ vor|al- len, wer´s|Rei- sen wäh- len|will, wer´s|Rei- sen wäh- len|
w: Wald und Herz er-|klingt, ein'|fri- * sche Rei- * se-|no- te durch|Wald und Herz er-|klingt, durch|Wald und Herz er-|
w: Vö- gel und den|Wind, Ge-|dan- * ken ü- * ber-|flie- gen die|Vö- gel und den|Wind, die|Vö- gel und den|
 B3 z2!pp! B | B2 B B2 B | _d3 (dc)B | B2!<(! B B2 B!<)! | e3- e z!pp! B | c2 c c2 c | %20
w: will. Wenn´s|kaum im O- sten|glüh- te, _ die|Welt noch still und|weit, _ da|weht recht durch´s Ge-|
w: klingt. O|Lust, vom Berg zu|schau- en _ weit|ü- ber Wald und|Strom, _ hoch|ü- ber sich den|
w: Wind. Die|Wol- ken zieh'n her-|nie- der, _ das|Vög- lein senkt sich|gleich. _ Ge-|dan- ken geh'n und|
 e3"^cresc." (e_d)c | c2 c c2 c |!f! a3 f3 | e2 d c2 B | B3 f3 | e2 d c2 B | B3 z2!p! B | e3 B3 | %28
w: mü- te _ die|schö- ne Blü- ten-|zeit, da|weht recht durch´s Ge-|müt die|schö- ne Blü- ten-|zeit, die|schö- ne,|
w: blau- en, _ den|kla- ren Him- mels-|dom. hoch|ü- ber sich den|blau- den|kla- ren Him- mels-|dom, den|blau- en,|
w: Lie- der _ bis|in das Him- mel-|reich, Ge-|dan- ken geh'n und|Lie- bis|in das Him- mel-|reich, sie|geh'n bis|
 B3- (BG)F | E3 (A2 G) | G3 z2!f! B | g3 e3 | e3- (ed)c | (B3 b3-) | b3 d3 | !fermata!e6 |] %36
w: schö- * * ne|Blü- ten- *|zeit, die|schö- ne,|schö- * * ne|Blü- *|* ten-|zeit!|
w: kla- * * ren|Him- mels- *|dom, den|blau- en,|kla- * * ren|Him- *|* mels-|dom.|
w: in _ _ das|Him- mel- *|reich, sie|geh'n bis|in _ _ das|Him- *|* mel-|reich.|
V:2
 x | x6 | x6 | x6 | x6 | x6 | x6 | x6 | x6 | x6 | x6 | x6 | x6 | x6 | x6 | x6 | x6 | x6 | x6 | x6 | %20
w: ||||||||||||||||||||
w: ||||||||||||||||||||
w: ||||||||||||||||||||
 x6 | x6 | x6 | x6 | B2 B x3 | x6 | x6 | x6 | x6 | x6 | x6 | x6 | x6 | x6 | x6 | x6 |] %36
w: ||||||||||||||||
w: ||||* en,||||||||||||
w: ||||* der||||||||||||
V:3
!f! E | E2 E (BG)e | B3 G2 A | B2 E E2 E | E3!p! D3 | E3- E2 D | E3 D3 | E3 D2 D | %8
w: ||||* 1.~recht|fröh- * lich|sei vor|al- len, recht|
w: ||||* 2.~ein'|fri- * sche|Rei- se-|no- te ein'|
w: ||||* 3.~Ge-|dan- * ken|ü- ber-|flie- gen Ge-|
 E2"^cresc." E E2 G |!f! (G6 | =A3) B3- | B z z!p! ^F3 | G2 =F E2 D | F3 =A3 | B3 z2!pp! F | %15
w: fröh- lich sei vor|al-|* len,|_ wer´s|Rei- sen wäh- len,|wäh- len|will. Wenn´s|
w: fri- sche Rei- se-|no-|* te|_ durch|Wald und Herz, und|Herz er-|klingt. O|
w: dan- ken ü- ber-|flie-|* gen|_ die|Vö- gel und den|Wind, den|Wind. Die|
 F2 F F2 F | F3 F2 F | =E2!<(! E E2 E!<)! | E3- E z!pp! E | E2 E E2 E | E3"^cresc." F2 F | %21
w: kaum im O- sten|glüh- te, die|Welt noch still und|weit, _ da|weht recht durch´s Ge-|mü- te die|
w: Lust, vom Berg zu|schau- en weit|ü- ber Wald und|Strom, _ hoch|ü- ber sich den|blau- en, den|
w: Wol- ken zieh'n her-|nie- der, das|Vög- lein senkt sich|gleich. _ Ge-|dan- ken geh'n und|Lie- der bis|
 B2 B B2 B |!f! A3- A2 z | z2 z A3 | A2 F A2 F | A6- | A3 A2!p! A | G3 B3 | G3 E3 | B,3 D3 | %30
w: schö- ne Blü- ten-|zeit, _|da|weht recht durch´s Ge-|mü-|* te die|schö- ne,|schö- ne|Blü- ten-|
w: kla- ren Him- mels-|dom. _|hoch|ü- ber sich den|blau-|* en, den|blau- en,|kla- ren|Him- mels-|
w: in das Him- mel-|reich, _|Ge-|dan- ken geh'n und|Lie-|* der sie|geh'n bis|in das|Him- mel-|
 E3 z2!f! G | B3 G3 | ^F3- F2 F | G6 | A6 | !fermata!G6 |] %36
w: zeit, die|schö- ne,|schö- * ne|Blü-|ten-|zeit!|
w: dom, den|blau- en,|kla- * ren|Him-|mels-|dom.|
w: reich, sie|geh'n bis|in _ das|Him-|mel-|reich.|
V:4
!f! G | E2 G (BG)e | e3 B2 c | _d2 d d2 d | c3 z2 z | z2 z z2!p! B | e2 B A2 B | G3 F2 B | %8
w: 1.~Durch|Feld und Bu- * chen-|hal- len bald|sin- gend und bald|still,|1.~recht|fröh- lich sei vor|al- len, recht|
w: 2.~Die|Lerch' als Mor- * gen-|bo- te sich|durch die Lüf- te|schingt,|2.~ein'|fri- sche Rei- se-|no- te ein'|
w: 3.~Vom|Ber- ge Vög- * lein|flie- gen und|Wol- ken so ge-|schwind,|3.~Ge-|dan- ken ü- ber-|flie- gen Ge-|
 (BG)"^cresc."A (Bc)d |!f! e6- | e3 f3- | f z z!p! (d2 c) | B3- B2 B | (d2 c) (f2 e) | %14
w: fröh- * lich sei _ vor|al-|* len,|_ wer´s _|Rei- * sen||
w: fri- * sche Rei- * se-|no-|* te|_ durch _|Wald _ und||
w: dan- * ken ü- * ber-|flie-|* gen|_ die _|Vö- * gel||
 d3 z2!pp! _d | _d2 d d2 d | B3 (Bc)_d | _d2!<(! d d2 d!<)! | _d3- d z!pp! d | c2 c c2 c | %20
w: ||||||
w: ||||||
w: ||||||
 c3"^cresc." c2 c | =e2 e e2 e |!f! f3- f2 z | z2 z d3 | e2 f e2 d | (c2 B e2 d | g2 f) e2!p! d | %27
w: |||||||
w: |||||||
w: |||||||
 e3 f3 | B3- B2 B | G3 F3 | G3 z2!f! e | e3 B3 | c3- (cd)e | (e3 =e3) | f6 | !fermata!_e6 |] %36
w: |||||||||
w: |||||||||
w: |||||||||
V:5
!f! E, | E,2 E, E,2 E, | E,3 E,2 E, | G,2 G, G,2 G, | A,3!p! A,3 | G,3 F,3 | E,3 B,,3 | %7
w: ||||* 1.~recht|fröh- lich|sei vor|
w: ||||* 2.~ein'|fri- sche|Rei- se-|
w: ||||* 3.~Ge-|dan- ken|ü- ber-|
 B,,3 B,, z B,, | E,2"^cresc." F, (G,A,)B, |!f! C6- | C3 D3- | D z z!p! D,3 | E,3 G,3 | F,3 F,3 | %14
w: al- len, *|||||||
w: no- te *|||||||
w: flie- gen *|||||||
 B,,3 z2!pp! B, | B,2 B, B,2 B, | _A,3 A,2 A, | A,2!<(! A, A,2 A,!<)! | G,3- G, z!pp! G, | %19
w: |||||
w: |||||
w: |||||
 A,2 A, A,2 A, | A,3"^cresc." A,2 A, | G,2 G, G,2 G, |!f! F,3- F,2 z | z2 z F,3 | E,2 D, C,2 B,, | %25
w: |||||* * * Ge-|
w: |||||* * * den|
w: |||||* * * und|
 B,,3 F,3 | E,2 D,"^dim." C,2 B,, | C,3!p! D,3 | E,3 G,,3 | B,,3 B,,3 | E,3 z2!f! E, | E,3 G,3 | %32
w: müt die|schö- ne Blü- ten-|zeit, die|schö- ne||||
w: blau- den|kla- ren Him- mels-|dom, den|kla- ren||||
w: Lie- bis|in das Him- mel-|reich, bis|in das||||
 A,3 =A,3 | B,6 | B,,6 | !fermata!E,6 |] %36
w: ||||
w: ||||
w: ||||
V:6
 x | x6 | x6 | x6 | x6 | x6 | x6 | x6 | x6 | x6 | x6 | x6 | x6 | x6 | x6 | x6 | x6 | x6 | x6 | x6 | %20
w: ||||||||||||||||||||
w: ||||||||||||||||||||
w: ||||||||||||||||||||
 x6 | x6 | x6 | x6 | x6 | B,,2 B,, x3 | x6 | x6 | x6 | x6 | x6 | x6 | x6 | x6 | x6 | x6 |] %36
w: ||||||||||||||||
w: |||||* en,|||||||||||
w: |||||* der|||||||||||

